images/brand-images/menu-btn.svg

<svg width="60" height="60" viewBox="0 0 60 60" xmlns="http://www.w3.org/2000/svg"><title>menu btn</title><desc>Created with Sketch.</desc><path d="M0 0h60v60H0V0zm1323 104h24v2h-24v-2zm0 5h24v2h-24v-2zm0-10h24v2h-24v-2z" fill="#fff"/></svg>

<?xml version="1.0" encoding="UTF-8" standalone="no"?>
<svg width="60px" height="60px" viewBox="0 0 60 60" version="1.1" xmlns="http://www.w3.org/2000/svg" xmlns:xlink="http://www.w3.org/1999/xlink" xmlns:sketch="http://www.bohemiancoding.com/sketch/ns">
    <!-- Generator: Sketch 3.3.3 (12072) - http://www.bohemiancoding.com/sketch -->
    <title>menu btn</title>
    <desc>Created with Sketch.</desc>
    <defs></defs>
    <g id="V2" stroke="none" stroke-width="1" fill="none" fill-rule="evenodd" sketch:type="MSPage">
        <g id="Landing" sketch:type="MSArtboardGroup" transform="translate(-1305.000000, -75.000000)" fill="#FFFFFF">
            <path d="M1305,75 L1365,75 L1365,135 L1305,135 L1305,75 Z M1323,104 L1347,104 L1347,106 L1323,106 L1323,104 Z M1323,109 L1347,109 L1347,111 L1323,111 L1323,109 Z M1323,99 L1347,99 L1347,101 L1323,101 L1323,99 Z" id="menu-btn" sketch:type="MSShapeGroup"></path>
        </g>
    </g>
</svg>
